symbols/web/window/materialsymbolsoutlined/window_wght300grad200fill1_20px.svg

<svg xmlns="http://www.w3.org/2000/svg" height="20" width="20"><path d="M10.938 9.062V1.417h5.52q.875 0 1.5.625t.625 1.5v5.52Zm0 9.521v-7.645h7.645v5.52q0 .875-.625 1.5t-1.5.625ZM1.417 9.062v-5.52q0-.875.625-1.5t1.5-.625h5.52v7.645Zm2.125 9.521q-.875 0-1.5-.625t-.625-1.5v-5.52h7.645v7.645Z"/></svg>

<svg xmlns="http://www.w3.org/2000/svg" height="20" width="20"><path d="M10.938 9.062V1.417H16.458Q17.333 1.417 17.958 2.042Q18.583 2.667 18.583 3.542V9.062ZM10.938 18.583V10.938H18.583V16.458Q18.583 17.333 17.958 17.958Q17.333 18.583 16.458 18.583ZM1.417 9.062V3.542Q1.417 2.667 2.042 2.042Q2.667 1.417 3.542 1.417H9.062V9.062ZM3.542 18.583Q2.667 18.583 2.042 17.958Q1.417 17.333 1.417 16.458V10.938H9.062V18.583Z"/></svg>
